X:1
T:Enfield (Bede), 87.87.89.97
T:Enfield (Bede), 87.87.89.97
T:Victor Bede, 1890
T:Public Domain Courtesy of the Cyber Hymnal™
C:Victor Bede, 1890
Z:Public Domain
Z:Courtesy of the Cyber Hymnal™
%%score ( 1 2 ) ( 3 4 )
L:1/8
Q:1/4=103
M:4/4
K:F
V:1 treble 
V:2 treble 
V:3 bass 
V:4 bass 
V:1
 [Fc]2 F2 [FB][FA][EG][EA] | [CF]4 [B,D]4 | C2 [CF]2 [=B,F][B,F][B,E][B,F] | [CG]8 | %4
 [Cc]2 [CF]2 [FB][FA][EG][EA] | [DF]4 D4 | [CE][CE][CF][FG] [FA]2 [F=B]2 | [Ec]8 | %8
 [Ed]2 [EG]2 [EG][EG][EA][EB] | [Fc]4 F2 F2 | [Fd][Fd] [Fd]2 [Ee][Ee] [Ed]2 | [Ed]4 [E^c]4 | %12
 [Dd][Dd][Dd][Dc] [DB]2 [DA][DB] | c4 [FA]2 [Fc]2 | [Fc]2 [FB][FA] [EA]2 [EG]2 | F8 |] %16
V:2
 x2 F2 x4 | x8 | C2 x6 | x8 | x8 | x4 D4 | x8 | x8 | x8 | x4 F2 F2 | x8 | x8 | x8 | (G2 E2) x4 | %14
 x8 | F8 |] %16
V:3
 [F,A,]2 [F,A,]2 [F,D][F,C][C,B,][C,C] | [F,A,]4 [B,,B,]4 | %2
 [F,A,]2 [F,A,]2 [D,F,][D,F,][D,G,][D,F,] | (G,4 B,4) | [F,,F,A,]2 [F,A,]2 [F,D][F,C][C,B,][C,C] | %5
 [D,A,]4 [D,F,]4 | G,G,[G,A,][G,=B,] [G,C]2 [G,D]2 | [C,C]8 | [B,C]2 [B,C]2 [B,C][B,C][A,C][G,C] | %9
 [A,C]4 [A,C]2 [A,_E]2 | [B,D][B,D] [B,D]2 [G,B,][G,B,] [G,B,]2 | A,4 A,4 | %12
 [F,A,][F,A,][^F,A,][F,A,] G,2 [=F,G,][F,G,] | ([E,G,]2 [C,C]2) [F,C]2 [A,,_E]2 | %14
 [B,,_E]2 [B,,D][B,,C] [C,C]2 [C,B,]2 | [F,,A,]8 |] %16
V:4
 x8 | x8 | x8 | C,8 | x8 | x8 | G,G, x6 | x8 | x8 | x8 | x8 | A,4 A,2 G,2 | x4 G,2 x2 | x8 | x8 | %15
 x8 |] %16

